X: 234
T: A Jig For Christmas
R: jig
M: 6/8
K: Gmajor
|:D|G2 D A2 D|cdA GG/A/B|c2 A BAG|A2 F D2 c|
B2 G D2 [B,B]|E^DE c2 A|BAG D2 G|G3- G2:|
|:B|d2 B G2 d|c2 A F2 d|BAG cAG|F2 E D3|
G2 D A2 D|B2 D d2 c|BAG [D2A2] G|G3- G2:|

